X:1
T:Gressus meos dirige
T:Lassus
T:Gressus meos dirige
T:Copyright © 2015 by CPDL.  This edition can be fully distributed, duplicated, performed, and recorded.
T:Copyright © 2015 by CPDL.  This edition can be fully distributed, duplicated, performed, and recorded.
T:Copyright © 2015 by CPDL.  This edition can be fully distributed, duplicated, performed, and recorded.
T:Copyright © 2015 by CPDL.  This edition can be fully distributed, duplicated, performed, and recorded.
T:Copyright © 2015 by CPDL.  This edition can be fully distributed, duplicated, performed, and recorded.
C:Lassus
Z:Copyright © 2015 by CPDL.  This edition can be fully distributed, duplicated, performed, and recorded.
%%score [ 1 2 3 4 ]
L:1/8
Q:1/2=104
M:4/2
K:Bb
V:1 treble nm="Soprano" snm="S."
V:2 treble nm="Alto" snm="A."
V:3 treble-8 transpose=-12 nm="Tenor" snm="T."
V:4 bass nm="Bass" snm="B."
V:1
"^Psalm 119: 133  Guide my steps by your word,that no wickedness may dominate me." F6 G2 A2 B2 c2 A2 | %1
w: Gres- * * * * *|
 B2 c2 d2 e2 f8 | B6 c2 d4 G4- | G2 A2 B8 A2 G2 | A2 B2 c6 B2 A2 c2 | d2 c2 B4 A8 | z8 F6 G2 | %7
w: |sus _ _ me|_ _ _ _ _||* * * os,|gres- *|
 A2 B2 c2 A2 B2 c2 d2 e2 | f6 ed c2 d2 c4 | e4 d2 c2 B8 | A6 GF G8 | A8 A6 A2 | d4 d4 e4 B4 | %13
w: ||sus _ _ _|me- * * *|os di- ri-|ge se- cun- dum|
 c12 B4- | B4 _A4 G6 =A2 | B4 c6 =BA B4 | c4 G8 G4 | =A4 A4 A8 | B16 | c8 d8 | =e8 f8 | z8 z4 G4- | %22
w: e- lo-|* qui- um _|_ tu- * * *|um: ut non|do- mi- ne-|tur|me- *|* i,|ut|
 G4 G4 A4 A4 | A4 B6 AG A4 | G8 G8 | z8 z4 c4- | c4 B4 B4 _A4 | G6 G2 G8 | F6 EF G8 | z4 c8 B4 | %30
w: _ non do- mi-|ne- tur _ _ _|me- i|o-|* nnis in- ju-|sti- ti- a,|_ _ _ _|o- mnis|
 B4 _A4 G6 G2 | G4 e8 d4 | d4 c6 =BA B4 | c4 e4 d8 | z16 | d8 c4 c4 | B8 A6 A2 | A4 c8 =B4 | c16 | %39
w: in- ju- sti- ti-|a, o- mnis|in- ju- * * *|sti- ti- a,||o- mnis in-|ju- sti- ti-|a Do- mi-|ne,|
 c12 c4 | =A16 |] %41
w: Do- mi-|ne.|
V:2
 z16 | B,6 C2 D2 E2 F2 D2 | E2 F2 G2 A2 B8 | E6 F2 G4 C4- | C2 B,2 A,2 G,2 F,8 | F,8 z8 | %6
w: |Gres- * * * * *||sus _ _ me|_ _ _ _ _|os,|
 z4 B,6 C2 D2 E2 | F2 D2 E2 F2 G2 A2 B4- | B4 A4 z8 | z4 F4 D4 G4- | G2 F2 F6 =ED E4 | F8 F6 F2 | %12
w: gres- * * *||* sus|gres- sus me-||os di- ri-|
 F4 F4 G8- | G4 E4 G8 | G4 F4 D8 | G16 | =E16 | z16 | z16 | z8 G8- | G4 G4 A4 A4 | A8 B8 | %22
w: ge se- cun-|* dum e-|lo- qui- um|tu-|um:|||ut|_ non do- mi-|ne- tur|
 B,6 B,2 C4 C4 | D8 C4 C4- | C2 =B,A, B,4 C8 | G8 F8 | z4 G8 F4- | F4 E4 E4 D4- | D4 C4 D6 E2 | %29
w: ut non do- mi-|ne- tur me-|* * * * i|o- mnis|o- mnis|_ in- ju- sti-|* ti- a, _|
 F8 z4 G4- | G4 F4 E4 D4 | E6 D2 C2 G,2 B,2 C2 | D2 B,2 C2 D2 E2 DC D4 | G,4 G,6 =A,2 B,4 | %34
w: _ o-|* mnis in- ju-|sti- * * * * *||ti- a, _ _|
 =A,6 A,2 G,4 G4- | G4 F4 F4 E4 | D6 D2 D4 D4 | C4 G8 G4 | F4 E4 _A8 | G12 G4 | C16 |] %41
w: Do- mi- ne, o-|* mnis in- ju-|sti- ti- a, o-|mnis in- ju-|sti- ti- a|Do- mi-|ne.|
V:3
 z16 | z16 | z16 | z16 | F6 G2 A2 B2 c2 A2 | B2 c2 d2 e2 f8 | B6 c2 d2 e2 f4 | d4 c4 z8 | %8
w: ||||Gres- * * * * *||sus _ _ _ _|me os,|
 F6 G2 A2 B2 c2 A2 | B2 c2 d2 e2 f4 e4 | c16 | c4 d8 c4 | B4 B8 e4- | e4 c4 e4 d4 | e4 c6 _BA B4 | %15
w: gres- * * * * *|* * * * * sus|me-|os di- ri-|ge se- cun-|* dum e- lo-|qui- um _ _ _|
 e8 d8 | c8 z4 c4- | c4 c4 d4 d4 | d12 e4- | e4 c6 =BA B4 | c4 c8 c4 | d4 d4 d8- | d4 e4 f8- | %23
w: tu- *|um: ut|_ non do- mi-|ne- tur|_ me- * * *|i, ut non|do- mi- ne-|* tur me-|
 f16 | d8 e8- | e4 d8 c4 | e4 d4 e4 c4 | z4 c8 B4 | B4 _A4 G6 G2 | d4 f4 e4 d4 | e4 c8 =B4 | %31
w: |i o-|* mnis in-|ju- sti- ti- a,|om- nis|in- ju- sti- ti-|a, o- mnis in-|ju- sti- ti-|
 c8 G8 | F8 G4 G4 | e4 c4 B4 d4- | d4 c4 c4 B4- | B4 A6 A2 G4 | z4 g8 f4 | f4 e4 d6 d2 | %38
w: a, o-|mnis in- ju-|sti- ti- a om-|* nis in- ju-|* sti- ti- a,|o- mnis|in- ju- sti- ti-|
 c8 z4 f4- | f4 =e2 d2 e4 e4 | f16 |] %41
w: a Do-|* * * * mi-|ne.|
V:4
 z16 | z16 | z16 | z16 | z16 | B,,6 C,2 D,2 E,2 F,2 D,2 | E,2 F,2 G,2 A,2 B,4 B,,4 | z8 z4 B,,4- | %8
w: |||||Gres- * * * * *|* * * * * sus|gres-|
 B,,2 C,2 D,2 E,2 F,2 D,2 E,2 F,2 | G,2 A,2 B,8 E,4 | F,6 E,D, C,8 | F,4 D,8 F,4 | B,,4 B,,4 E,8 | %13
w: |* * * sus|me- * * *|os di- ri-|ge se- cun-|
 C,4 _A,4 G,6 F,2 | E,4 F,4 G,6 F,2 | E,2 D,2 C,4 G,8 | C,16 | F,12 F,4 | G,4 G,4 G,8 | _A,8 G,8 | %20
w: dum e- lo- *|* qui- um _|_ _ _ tu-|um:|ut non|do- mi- ne-|tur me-|
 C,8 F,8- | F,4 F,4 G,4 G,4 | G,8 F,6 E,2 | D,2 C,2 B,,4 F,8 | G,8 z4 C4- | C4 B,4 B,4 _A,4 | %26
w: i, ut|_ non do- mi-|ne- tur _|_ _ _ me-|i o-|* mnis in- ju-|
 G,6 F,2 E,4 F,4 | C,8 z8 | z4 C8 B,4 | B,4 _A,4 G,6 F,2 | E,4 F,4 G,8 | z4 C,8 B,,4 | %32
w: sti- * * ti-|a,|o- mnis|in- ju- sti- *|* ti- a,|o- mnis|
 B,,4 _A,,4 G,,6 G,,2 | C,8 G,8 | F,4 F,4 E,8 | D,6 E,2 F,4 C,4 | G,8 D,8 | F,4 C,4 G,8 | %38
w: in- ju- sti- ti-|a, o-|mnis in- ju-|sti- * * ti-|a o-|mnis in- ju-|
 _A,6 A,2 F,8 | C,12 C,4 | F,16 |] %41
w: sti- ti- a|Do- mi-|ne.|

